pro/src/icons/stroke-duo.svg

<svg width="48" height="48" viewBox="0 0 48 48" fill="none" xmlns="http://www.w3.org/2000/svg">
<path id="icon" fill-rule="evenodd" clip-rule="evenodd" d="M12 14H36C41.5228 14 46 18.4772 46 24C46 29.5228 41.5228 34 36 34H12C6.47715 34 2 29.5228 2 24C2 18.4772 6.47715 14 12 14ZM0 24C0 17.3726 5.37258 12 12 12H36C42.6274 12 48 17.3726 48 24C48 30.6274 42.6274 36 36 36H12C5.37258 36 0 30.6274 0 24ZM32.1878 29.2333C33.0742 29.7444 34.0688 30 35.1716 30C36.2744 30 37.269 29.7444 38.1554 29.2333C39.0417 28.7111 39.7374 27.9944 40.2425 27.0833C40.7475 26.1722 41 25.1444 41 24C41 22.8556 40.7475 21.8278 40.2425 20.9167C39.7374 20.0056 39.0417 19.2944 38.1554 18.7833C37.269 18.2611 36.2744 18 35.1716 18C34.0688 18 33.0742 18.2611 32.1878 18.7833C31.3015 19.2944 30.6058 20.0111 30.1007 20.9333C29.5957 21.8444 29.3432 22.8667 29.3432 24C29.3432 25.1333 29.5957 26.1611 30.1007 27.0833C30.6058 27.9944 31.3015 28.7111 32.1878 29.2333ZM37.1196 27.5833C36.5424 27.9278 35.8931 28.1 35.1716 28.1C34.4501 28.1 33.8008 27.9278 33.2237 27.5833C32.6465 27.2278 32.193 26.7389 31.8632 26.1167C31.5334 25.4833 31.3685 24.7778 31.3685 24C31.3685 23.2222 31.5334 22.5222 31.8632 21.9C32.193 21.2667 32.6465 20.7778 33.2237 20.4333C33.8008 20.0778 34.4501 19.9 35.1716 19.9C35.8931 19.9 36.5424 20.0778 37.1196 20.4333C37.6967 20.7778 38.1502 21.2667 38.48 21.9C38.8098 22.5222 38.9748 23.2222 38.9748 24C38.9748 24.7778 38.8098 25.4833 38.48 26.1167C38.1502 26.7389 37.6967 27.2278 37.1196 27.5833ZM7 18.1667H11.7307C12.8851 18.1667 13.9106 18.4111 14.8073 18.9C15.7039 19.3778 16.3996 20.0611 16.8944 20.95C17.3891 21.8278 17.6364 22.8444 17.6364 24C17.6364 25.1556 17.3891 26.1778 16.8944 27.0667C16.3996 27.9444 15.7039 28.6278 14.8073 29.1167C13.9106 29.5944 12.8851 29.8333 11.7307 29.8333H7V18.1667ZM11.638 28C12.4316 28 13.1273 27.8389 13.7251 27.5167C14.3332 27.1833 14.797 26.7167 15.1165 26.1167C15.4463 25.5056 15.6112 24.8 15.6112 24C15.6112 23.2 15.4463 22.5 15.1165 21.9C14.797 21.2889 14.3332 20.8222 13.7251 20.5C13.1273 20.1667 12.4316 20 11.638 20H9.00979V28H11.638ZM23.4984 30C22.0039 30 20.8393 29.55 20.0045 28.65C19.1696 27.7389 18.7522 26.4389 18.7522 24.75V18.1667H20.762V24.6667C20.762 26.9556 21.6793 28.1 23.5139 28.1C25.3381 28.1 26.2503 26.9556 26.2503 24.6667V18.1667H28.2291V24.75C28.2291 26.4389 27.8117 27.7389 26.9769 28.65C26.1524 29.55 24.9929 30 23.4984 30Z" fill="currentColor"/>
</svg>

<svg xmlns="http://www.w3.org/2000/svg" width="48" height="48" fill="none"><path id="icon" fill="currentColor" fill-rule="evenodd" d="M12 14h24c5.523 0 10 4.477 10 10s-4.477 10-10 10H12C6.477 34 2 29.523 2 24s4.477-10 10-10M0 24c0-6.627 5.373-12 12-12h24c6.627 0 12 5.373 12 12s-5.373 12-12 12H12C5.373 36 0 30.627 0 24m32.188 5.233q1.328.767 2.984.767 1.654 0 2.983-.767a5.6 5.6 0 0 0 2.087-2.15Q41 25.717 41 24q0-1.716-.758-3.083a5.5 5.5 0 0 0-2.087-2.134Q36.826 18 35.172 18t-2.984.783a5.45 5.45 0 0 0-2.087 2.15Q29.343 22.3 29.343 24t.758 3.083a5.6 5.6 0 0 0 2.087 2.15m4.932-1.65a3.73 3.73 0 0 1-1.948.517q-1.083 0-1.948-.517a3.75 3.75 0 0 1-1.36-1.466q-.495-.951-.495-2.117 0-1.167.494-2.1a3.6 3.6 0 0 1 1.36-1.467 3.64 3.64 0 0 1 1.949-.533q1.081 0 1.948.533.865.517 1.36 1.467.495.933.495 2.1 0 1.166-.495 2.117a3.75 3.75 0 0 1-1.36 1.466M7 18.167h4.73q1.732 0 3.077.733a5.07 5.07 0 0 1 2.087 2.05q.742 1.316.742 3.05t-.742 3.067a5.2 5.2 0 0 1-2.087 2.05q-1.344.716-3.076.716H7zM11.638 28q1.191 0 2.087-.483a3.4 3.4 0 0 0 1.392-1.4q.494-.917.494-2.117t-.495-2.1a3.26 3.26 0 0 0-1.39-1.4q-.898-.5-2.088-.5H9.01v8zm11.86 2q-2.241 0-3.494-1.35-1.251-1.367-1.252-3.9v-6.583h2.01v6.5q0 3.433 2.752 3.433 2.736 0 2.736-3.433v-6.5h1.98v6.583q0 2.534-1.253 3.9Q25.74 30 23.498 30" clip-rule="evenodd"/></svg>
